WindowsPhone/svg/appbar.new.window.svg

<?xml version="1.0" encoding="UTF-8" standalone="no"?>
<svg
   xmlns:dc="http://purl.org/dc/elements/1.1/"
   xmlns:cc="http://creativecommons.org/ns#"
   xmlns:rdf="http://www.w3.org/1999/02/22-rdf-syntax-ns#"
   xmlns:svg="http://www.w3.org/2000/svg"
   xmlns="http://www.w3.org/2000/svg"
   xmlns:sodipodi="http://sodipodi.sourceforge.net/DTD/sodipodi-0.dtd"
   xmlns:inkscape="http://www.inkscape.org/namespaces/inkscape"
   version="1.1"
   width="76"
   height="76"
   viewBox="0 0 76.00 76.00"
   enable-background="new 0 0 76.00 76.00"
   xml:space="preserve"
   id="svg2"
   inkscape:version="0.91 r13725"
   sodipodi:docname="appbar.new.window.svg"><metadata
     id="metadata10"><rdf:RDF><cc:Work
         rdf:about=""><dc:format>image/svg+xml</dc:format><dc:type
           rdf:resource="http://purl.org/dc/dcmitype/StillImage" /></cc:Work></rdf:RDF></metadata><defs
     id="defs8" /><sodipodi:namedview
     pagecolor="#ffffff"
     bordercolor="#666666"
     borderopacity="1"
     objecttolerance="10"
     gridtolerance="10"
     guidetolerance="10"
     inkscape:pageopacity="0"
     inkscape:pageshadow="2"
     inkscape:window-width="1095"
     inkscape:window-height="688"
     id="namedview6"
     showgrid="false"
     inkscape:zoom="3.1052632"
     inkscape:cx="40.147517"
     inkscape:cy="38"
     inkscape:window-x="517"
     inkscape:window-y="555"
     inkscape:window-maximized="0"
     inkscape:current-layer="layer2" /><g
     inkscape:groupmode="layer"
     id="layer1"
     inkscape:label="active"
     style="display:inline"><path
       style="display:inline;fill:#000000;fill-opacity:1;stroke-width:0.2;stroke-linejoin:round"
       d="M 44.3333,19 57,19 l 0,12.6667 -4.75,4.75 0,-8.7084 L 34.8333,45.125 30.875,41.1667 48.2917,23.75 l -8.7084,0 4.75,-4.75 z M 19,25.3333 l 23.75,0 -4.75,4.75 -14.25,0 0,22.1667 22.1667,0 0,-14.25 4.75,-4.75 0,23.75 L 19,57 19,25.3333 Z"
       id="path4"
       inkscape:connector-curvature="0" /></g><g
     inkscape:groupmode="layer"
     id="layer2"
     inkscape:label="inactive"
     style="display:inline"><path
       inkscape:connector-curvature="0"
       id="path3362"
       d="M 44.3333,19 57,19 l 0,12.6667 -4.75,4.75 0,-8.7084 L 34.8333,45.125 30.875,41.1667 48.2917,23.75 l -8.7084,0 4.75,-4.75 z M 19,25.3333 l 23.75,0 -4.75,4.75 -14.25,0 0,22.1667 22.1667,0 0,-14.25 4.75,-4.75 0,23.75 L 19,57 19,25.3333 Z"
       style="display:inline;fill:#9b9b9b;fill-opacity:1;stroke-width:0.2;stroke-linejoin:round" /></g><g
     inkscape:groupmode="layer"
     id="layer3"
     inkscape:label="pressed"
     style="display:none"><path
       style="display:inline;fill:#ffffff;fill-opacity:1;stroke-width:0.2;stroke-linejoin:round"
       d="M 44.3333,19 57,19 l 0,12.6667 -4.75,4.75 0,-8.7084 L 34.8333,45.125 30.875,41.1667 48.2917,23.75 l -8.7084,0 4.75,-4.75 z M 19,25.3333 l 23.75,0 -4.75,4.75 -14.25,0 0,22.1667 22.1667,0 0,-14.25 4.75,-4.75 0,23.75 L 19,57 19,25.3333 Z"
       id="path4166"
       inkscape:connector-curvature="0" /></g></svg>

﻿<?xml version="1.0" encoding="utf-8"?>
<!DOCTYPE svg PUBLIC "-//W3C//DTD SVG 1.1//EN" "http://www.w3.org/Graphics/SVG/1.1/DTD/svg11.dtd">
<svg xmlns="http://www.w3.org/2000/svg" xmlns:xlink="http://www.w3.org/1999/xlink" version="1.1" baseProfile="full" width="76" height="76" viewBox="0 0 76.00 76.00" enable-background="new 0 0 76.00 76.00" xml:space="preserve">
	<path fill="#000000" fill-opacity="1" stroke-width="0.2" stroke-linejoin="round" d="M 44.3333,19L 57,19L 57,31.6667L 52.25,36.4167L 52.25,27.7083L 34.8333,45.125L 30.875,41.1667L 48.2917,23.75L 39.5833,23.75L 44.3333,19 Z M 19,25.3333L 42.75,25.3333L 38,30.0833L 23.75,30.0833L 23.75,52.25L 45.9167,52.25L 45.9167,38L 50.6667,33.25L 50.6667,57L 19,57L 19,25.3333 Z "/>
</svg>
